web/ui/src/components/workflow/workflow-viewer/svgs/tool/screen-normal.svg

<svg height="24" viewBox="0 0 24 24" width="24" xmlns="http://www.w3.org/2000/svg"><g fill="none" fill-rule="evenodd"><path d="m0 0h24v24h-24z" fill="#000" fill-rule="nonzero" opacity="0"/><g fill="#526579"><path d="m10.0397954 19.9028027c-.20400376-.1295058-.31620746-.3657667-.28847558-.6074264v-4.1351047l-4.7914044 4.8239808c-.24279051.2444412-.63776986.2457794-.88221109.0029889-.00112428-.0011167-.0022443-.0022377-.00336004-.0033629-.24498496-.2470676-.24482126-.6454894.00036666-.8923556l4.79966917-4.8325229h-4.17572748c-.23947248.0280718-.47367283-.0849817-.60236656-.2907752-.12838144-.2056923-.12838144-.4675204 0-.6732127.12869373-.2057935.36289408-.318847.60236656-.2907752h5.66241936c.167481.001535.327359.0712684.4427058.1936308.1252697.10993.1956346.2703966.1920274.4379172v5.6595915c.0278142.2416202-.0843089.4778892-.2882583.6074264-.309119.0863976-.5317028.0863976-.6677515 0z" fill-rule="nonzero"/><path d="m19.4593523 21.6589475h-2.1995951c-.4032591 0-.7331984-.3299393-.7331984-.7331984s.3299393-.7331984.7331984-.7331984h2.1995951c.4032591 0 .7331984-.3299393.7331984-.7331984v-2.1995951c0-.4032591.3299393-.7331984.7331984-.7331984s.7331984.3299393.7331984.7331984v2.1995951c0 1.2097774-.9898178 2.1995952-2.1995952 2.1995952z"/><path d="m3.32898786 7.72817817c-.40325911 0-.73319839-.32993928-.73319839-.73319839v-2.19959515c0-1.20977734.98981782-2.19959516 2.19959516-2.19959516h2.19959515c.40325911 0 .73319839.32993928.73319839.73319839s-.32993928.73319838-.73319839.73319838h-2.19959515c-.40325911 0-.73319839.32993928-.73319839.73319839v2.19959515c0 .40325911-.32993927.73319839-.73319838.73319839z"/><path d="m13.7246042 11c-.170899-.0014782-.3338998-.0729576-.4517416-.1980984-.1310194-.1106895-.2060929-.2749019-.2045915-.4475142v-5.78339787h-.0682711c.0374604-.32538336.3105446-.57098953.6350538-.57098953s.5973718.24560617.6348322.57098953v4.22595l4.8770162-4.90842111c.2478365-.24943238.6509525-.25072612.9003849-.00288965.0012313.00122338.0024575.00245178.0036787.00368518.2500831.25258094.2498906.65951184-.0004313.91185609l-4.8771653 4.91656854h4.261178c.3222926.03787175.5654528.31350642.5654528.64113072s-.2431602.603483-.5654528.6411307z" fill-rule="nonzero"/></g></g></svg>

<?xml version="1.0" encoding="UTF-8"?>
<svg width="24px" height="24px" viewBox="0 0 24 24" version="1.1" xmlns="http://www.w3.org/2000/svg" xmlns:xlink="http://www.w3.org/1999/xlink">
    <title>编组 12</title>
    <g id="页面-1" stroke="none" stroke-width="1" fill="none" fill-rule="evenodd">
        <g id="建木自动化-详情4备份-2" transform="translate(-1275.000000, -478.000000)">
            <g id="编组-12" transform="translate(1275.000000, 478.000000)">
                <rect id="矩形备份-19" fill="#000000" fill-rule="nonzero" opacity="0" x="0" y="0" width="24" height="24"></rect>
                <path d="M10.0397954,19.9028027 C9.83579164,19.7732969 9.72358794,19.537036 9.75131982,19.2953763 L9.75131982,15.1602716 L4.95991542,19.9842524 C4.71712491,20.2286936 4.32214556,20.2300318 4.07770433,19.9872413 C4.07658005,19.9861246 4.07546003,19.9850036 4.07434429,19.9838784 C3.82935933,19.7368108 3.82952303,19.338389 4.07471095,19.0915228 L8.87438012,14.2589999 L8.87438012,14.2589999 L4.69865264,14.2589999 C4.45918016,14.2870717 4.22497981,14.1740182 4.09628608,13.9682247 C3.96790464,13.7625324 3.96790464,13.5007043 4.09628608,13.295012 C4.22497981,13.0892185 4.45918016,12.976165 4.69865264,13.0042368 L10.361072,13.0042368 C10.528553,13.0057718 10.688431,13.0755052 10.8037778,13.1978676 C10.9290475,13.3077976 10.9994124,13.4682642 10.9958052,13.6357848 L10.9958052,19.2953763 C11.0236194,19.5369965 10.9114963,19.7732655 10.7075469,19.9028027 C10.3984279,19.9892003 10.1758441,19.9892003 10.0397954,19.9028027 Z" id="路径备份" fill="#526579" fill-rule="nonzero"></path>
                <path d="M19.4593523,21.6589475 L17.2597572,21.6589475 C16.8564981,21.6589475 16.5265588,21.3290082 16.5265588,20.9257491 C16.5265588,20.52249 16.8564981,20.1925507 17.2597572,20.1925507 L19.4593523,20.1925507 C19.8626114,20.1925507 20.1925507,19.8626114 20.1925507,19.4593523 L20.1925507,17.2597572 C20.1925507,16.8564981 20.52249,16.5265588 20.9257491,16.5265588 C21.3290082,16.5265588 21.6589475,16.8564981 21.6589475,17.2597572 L21.6589475,19.4593523 C21.6589475,20.6691297 20.6691297,21.6589475 19.4593523,21.6589475 Z" id="路径" fill="#526579"></path>
                <path d="M3.32898786,7.72817817 C2.92572875,7.72817817 2.59578947,7.39823889 2.59578947,6.99497978 L2.59578947,4.79538463 C2.59578947,3.58560729 3.58560729,2.59578947 4.79538463,2.59578947 L6.99497978,2.59578947 C7.39823889,2.59578947 7.72817817,2.92572875 7.72817817,3.32898786 C7.72817817,3.73224697 7.39823889,4.06218624 6.99497978,4.06218624 L4.79538463,4.06218624 C4.39212552,4.06218624 4.06218624,4.39212552 4.06218624,4.79538463 L4.06218624,6.99497978 C4.06218624,7.39823889 3.73224697,7.72817817 3.32898786,7.72817817 Z" id="路径" fill="#526579"></path>
                <path d="M13.7246042,11 C13.5537052,10.9985218 13.3907044,10.9270424 13.2728626,10.8019016 C13.1418432,10.6912121 13.0667697,10.5269997 13.0682711,10.3543874 L13.0682711,4.57098953 L13,4.57098953 C13.0374604,4.24560617 13.3105446,4 13.6350538,4 C13.959563,4 14.2324256,4.24560617 14.269886,4.57098953 L14.269886,8.79693953 L19.1469022,3.88851842 C19.3947387,3.63908604 19.7978547,3.6377923 20.0472871,3.88562877 C20.0485184,3.88685215 20.0497446,3.88808055 20.0509658,3.88931395 C20.3010489,4.14189489 20.3008564,4.54882579 20.0505345,4.80117004 L15.1733692,9.71773858 L15.1733692,9.71773858 L19.4345472,9.71773858 C19.7568398,9.75561033 20,10.031245 20,10.3588693 C20,10.6864936 19.7568398,10.9623523 19.4345472,11 L13.7246042,11 Z" id="路径备份-2" fill="#526579" fill-rule="nonzero"></path>
            </g>
        </g>
    </g>
</svg>
